Simply white circles/scalable/mimes/libreoffice-oasis-presentation.svg

<?xml version="1.0" encoding="UTF-8" standalone="no"?>
<!-- Created with Inkscape (http://www.inkscape.org/) -->

<svg
   xmlns:dc="http://purl.org/dc/elements/1.1/"
   xmlns:cc="http://creativecommons.org/ns#"
   xmlns:rdf="http://www.w3.org/1999/02/22-rdf-syntax-ns#"
   xmlns:svg="http://www.w3.org/2000/svg"
   xmlns="http://www.w3.org/2000/svg"
   xmlns:xlink="http://www.w3.org/1999/xlink"
   xmlns:sodipodi="http://sodipodi.sourceforge.net/DTD/sodipodi-0.dtd"
   xmlns:inkscape="http://www.inkscape.org/namespaces/inkscape"
   version="1.1"
   width="48"
   height="48"
   id="svg21744"
   sodipodi:docname="libreoffice-oasis-presentation.svg"
   inkscape:version="0.92.3 (2405546, 2018-03-11)">
  <sodipodi:namedview
     pagecolor="#ffffff"
     bordercolor="#666666"
     borderopacity="1"
     objecttolerance="10"
     gridtolerance="10"
     guidetolerance="10"
     inkscape:pageopacity="0"
     inkscape:pageshadow="2"
     inkscape:window-width="1366"
     inkscape:window-height="719"
     id="namedview44"
     showgrid="false"
     inkscape:zoom="3.4766083"
     inkscape:cx="-34.736069"
     inkscape:cy="19.503276"
     inkscape:window-x="0"
     inkscape:window-y="25"
     inkscape:window-maximized="1"
     inkscape:current-layer="svg21744"
     inkscape:snap-global="false"
     showguides="true"
     inkscape:guide-bbox="true" />
  <defs
     id="defs21746">
    <linearGradient
       x1="525.4375"
       y1="836.1875"
       x2="516.65625"
       y2="828.5"
       id="linearGradient14113"
       xlink:href="#linearGradient14494-2-7"
       gradientUnits="userSpaceOnUse"
       gradientTransform="translate(-125.5,-1702.64)" />
    <linearGradient
       id="linearGradient14494-2-7">
      <stop
         id="stop14496-9-3"
         style="stop-color:#dc85e9;stop-opacity:1"
         offset="0" />
      <stop
         id="stop14498-9-7"
         style="stop-color:#f2cbf8;stop-opacity:1"
         offset="1" />
    </linearGradient>
    <linearGradient
       x1="520.58502"
       y1="735.05206"
       x2="516.15179"
       y2="720.86298"
       id="linearGradient14115"
       xlink:href="#linearGradient14494-5"
       gradientUnits="userSpaceOnUse" />
    <linearGradient
       id="linearGradient14494-5">
      <stop
         id="stop14496-5"
         style="stop-color:#dc85e9;stop-opacity:1"
         offset="0" />
      <stop
         id="stop14498-1"
         style="stop-color:#f2cbf8;stop-opacity:1"
         offset="1" />
    </linearGradient>
    <linearGradient
       x1="525.4375"
       y1="836.1875"
       x2="516.65625"
       y2="828.5"
       id="linearGradient54948"
       xlink:href="#linearGradient14494-2-7"
       gradientUnits="userSpaceOnUse"
       gradientTransform="translate(-462.50049,-802.00385)" />
    <linearGradient
       x1="520.58502"
       y1="735.05206"
       x2="516.15179"
       y2="720.86298"
       id="linearGradient14109"
       xlink:href="#linearGradient14494-5"
       gradientUnits="userSpaceOnUse"
       gradientTransform="matrix(0.512535,0,0,0.615385,-202.35949,-422.92385)" />
    <linearGradient
       x1="525.4375"
       y1="836.1875"
       x2="516.65625"
       y2="828.5"
       id="linearGradient54952"
       xlink:href="#linearGradient14494-2-7"
       gradientUnits="userSpaceOnUse"
       gradientTransform="translate(-462.50049,-797.50385)" />
    <linearGradient
       x1="209.0625"
       y1="-765.46082"
       x2="209.0625"
       y2="-781.62268"
       id="linearGradient44039"
       xlink:href="#linearGradient15606-1"
       gradientUnits="userSpaceOnUse"
       gradientTransform="matrix(1.5,0,0,1.5,-364.99949,1176.9562)" />
    <linearGradient
       id="linearGradient15606-1">
      <stop
         id="stop15608-0"
         style="stop-color:#ffffff;stop-opacity:0.58823502"
         offset="0" />
      <stop
         id="stop15610-5"
         style="stop-color:#ffffff;stop-opacity:0.86274499"
         offset="1" />
    </linearGradient>
    <linearGradient
       x1="294.3429"
       y1="256.58133"
       x2="294.41818"
       y2="243.13852"
       id="linearGradient44042"
       xlink:href="#linearGradient10286-3"
       gradientUnits="userSpaceOnUse"
       gradientTransform="matrix(2.99213,0,0,3.00466,-830.71149,-727.44385)" />
    <linearGradient
       id="linearGradient10286-3">
      <stop
         id="stop10288-8"
         style="stop-color:#b3b3b3;stop-opacity:1"
         offset="0" />
      <stop
         id="stop10290-7"
         style="stop-color:#e6e6e6;stop-opacity:1"
         offset="1" />
    </linearGradient>
    <linearGradient
       x1="110.96875"
       y1="976.29968"
       x2="110.96875"
       y2="992.375"
       id="linearGradient43236"
       xlink:href="#linearGradient4145-42"
       gradientUnits="userSpaceOnUse" />
    <linearGradient
       id="linearGradient4145-42">
      <stop
         id="stop4953"
         style="stop-color:#e694bb;stop-opacity:1"
         offset="0" />
      <stop
         id="stop4955"
         style="stop-color:#d3819a;stop-opacity:1"
         offset="0.26238" />
      <stop
         id="stop4957"
         style="stop-color:#b25a64;stop-opacity:1"
         offset="0.704952" />
      <stop
         id="stop4959"
         style="stop-color:#98313d;stop-opacity:1"
         offset="1" />
    </linearGradient>
    <linearGradient
       x1="110.96875"
       y1="976.29968"
       x2="110.99982"
       y2="991.87488"
       id="linearGradient14097-7"
       xlink:href="#linearGradient4145-42"
       gradientUnits="userSpaceOnUse"
       gradientTransform="matrix(1,0,0,1.00011,0,-0.10551)" />
    <linearGradient
       x1="110.96875"
       y1="976.29968"
       x2="110.96875"
       y2="992.375"
       id="linearGradient21742"
       xlink:href="#linearGradient4145-42"
       gradientUnits="userSpaceOnUse"
       gradientTransform="matrix(1.00399,0,0,1.00959,-1.1658,-9.36636)" />
    <clipPath
       clipPathUnits="userSpaceOnUse"
       id="clipPath867">
      <g
         inkscape:label="Clip"
         id="use869">
        <path
           d="m 47.000614,3.0210706 v 0.75 40.5000404 0.72723 h 0.75 32.499399 0.75 v -0.72723 -25.50003 -0.3282 l -0.2344,-0.2343 -14.9059,-15.0000104 -0.1875,-0.1875 h -0.3282 -17.593399 z"
           id="path875"
           style="color:#000000;font-style:normal;font-variant:normal;font-weight:normal;font-stretch:normal;font-size:medium;line-height:normal;font-family:'Andale Mono';text-indent:0pt;text-align:start;text-decoration:none;text-decoration-line:none;letter-spacing:normal;word-spacing:normal;text-transform:none;direction:ltr;text-anchor:start;display:inline;overflow:visible;visibility:visible;fill:#000000;fill-opacity:1;fill-rule:nonzero;stroke:none;stroke-width:1;marker:none"
           inkscape:connector-curvature="0" />
      </g>
    </clipPath>
  </defs>
  <metadata
     id="metadata21749">
    <rdf:RDF>
      <cc:Work
         rdf:about="">
        <dc:format>image/svg+xml</dc:format>
        <dc:type
           rdf:resource="http://purl.org/dc/dcmitype/StillImage" />
        <dc:title></dc:title>
      </cc:Work>
    </rdf:RDF>
  </metadata>
  <path
     style="color:#000000;font-style:normal;font-variant:normal;font-weight:normal;font-stretch:normal;font-size:medium;line-height:normal;font-family:'Andale Mono';text-indent:0pt;text-align:start;text-decoration:none;text-decoration-line:none;letter-spacing:normal;word-spacing:normal;text-transform:none;direction:ltr;text-anchor:start;display:inline;overflow:visible;visibility:visible;fill:#e6e6e6;fill-opacity:1;stroke:none;stroke-width:5.99873972;marker:none"
     d="M 32.9375 -0.01171875 C 31.939073 0.30807755 31.603332 1.8281951 32.373047 2.5429688 L 41.408203 11.625 C 42.242926 12.420622 43.90524 11.739587 43.949219 10.583984 L 43.949219 1.5019531 C 43.949129 0.70932971 43.231852 -0.01162885 42.443359 -0.01171875 L 33.408203 -0.01171875 C 33.252508 -0.03570975 33.093105 -0.03570975 32.9375 -0.01171875 z M 6.4375 0.013671875 C 5.062346 0.27607036 3.975341 1.6123101 4 3.0117188 L 4 45 C 4.00015 46.570313 5.429312 47.99985 7 48 L 41 48 C 42.570687 47.99985 43.99985 46.570313 44 45 L 44 18.818359 C 44.018 18.026395 43.707481 17.231289 43.15625 16.662109 L 27.34375 0.85742188 C 26.774429 0.30647497 25.979653 -0.004681035 25.1875 0.013671875 L 7 0.013671875 C 6.813106 -0.004321175 6.624454 -0.004321175 6.4375 0.013671875 z M 7 3.0214844 L 7.75 3.0214844 L 25.34375 3.0214844 L 25.671875 3.0214844 L 25.859375 3.2089844 L 40.765625 18.208984 L 41 18.443359 L 41 18.771484 L 41 44.271484 L 41 44.998047 L 40.25 44.998047 L 7.75 44.998047 L 7 44.998047 L 7 44.271484 L 7 3.7714844 L 7 3.0214844 z M 11.423828 17.535156 C 11.092784 17.535156 10.824219 17.803722 10.824219 18.134766 L 10.824219 34.304688 C 10.824219 35.625889 11.897492 36.701172 13.21875 36.701172 L 20.173828 36.701172 L 18.041016 43.099609 C 17.936302 43.413697 18.106399 43.751316 18.419922 43.855469 C 18.483092 43.876529 18.546771 43.886719 18.609375 43.886719 C 18.860298 43.886719 19.094075 43.729438 19.177734 43.478516 L 21.4375 36.701172 L 23.400391 36.701172 L 23.400391 43.289062 C 23.400391 43.620106 23.668956 43.886719 24 43.886719 C 24.331045 43.886719 24.599609 43.620106 24.599609 43.289062 L 24.599609 36.701172 L 26.5625 36.701172 L 28.822266 43.478516 C 28.905926 43.729438 29.139703 43.886719 29.390625 43.886719 C 29.453225 43.886719 29.516912 43.876559 29.580078 43.855469 C 29.893549 43.751372 30.063642 43.413697 29.958984 43.099609 L 27.826172 36.701172 L 34.78125 36.701172 C 36.102452 36.701172 37.175781 35.625946 37.175781 34.304688 L 37.175781 18.134766 C 37.175669 17.803778 36.907216 17.535156 36.576172 17.535156 L 11.423828 17.535156 z M 13.21875 19.931641 L 34.78125 19.931641 L 34.78125 34.304688 L 13.21875 34.304688 L 13.21875 19.931641 z M 28.191406 21.128906 C 27.860361 21.128906 27.59375 21.397471 27.59375 21.728516 L 27.59375 32.507812 C 27.593806 32.838802 27.860361 33.107422 28.191406 33.107422 L 31.785156 33.107422 C 32.116201 33.107422 32.384766 32.838857 32.384766 32.507812 L 32.384766 21.728516 C 32.384766 21.397527 32.116201 21.128906 31.785156 21.128906 L 28.191406 21.128906 z M 22.203125 23.525391 C 21.87208 23.525391 21.603516 23.792003 21.603516 24.123047 L 21.603516 32.507812 C 21.603516 32.838858 21.87208 33.107422 22.203125 33.107422 L 25.796875 33.107422 C 26.12792 33.107422 26.396484 32.838857 26.396484 32.507812 L 26.396484 24.123047 C 26.396484 23.792003 26.12792 23.525391 25.796875 23.525391 L 22.203125 23.525391 z M 16.214844 27.117188 C 15.883799 27.117188 15.615234 27.385752 15.615234 27.716797 L 15.615234 32.507812 C 15.615234 32.838858 15.883799 33.107422 16.214844 33.107422 L 19.808594 33.107422 C 20.139639 33.107422 20.40625 32.838857 20.40625 32.507812 L 20.40625 27.716797 C 20.40625 27.385752 20.139639 27.117188 19.808594 27.117188 L 16.214844 27.117188 z "
     id="path14075" />
</svg>

<svg xmlns="http://www.w3.org/2000/svg" width="48" height="48"><defs><linearGradient id="a"><stop offset="0" stop-color="#dc85e9"/><stop offset="1" stop-color="#f2cbf8"/></linearGradient><linearGradient id="b"><stop offset="0" stop-color="#dc85e9"/><stop offset="1" stop-color="#f2cbf8"/></linearGradient><linearGradient id="c"><stop offset="0" stop-color="#fff" stop-opacity=".588"/><stop offset="1" stop-color="#fff" stop-opacity=".863"/></linearGradient><linearGradient id="d"><stop offset="0" stop-color="#b3b3b3"/><stop offset="1" stop-color="#e6e6e6"/></linearGradient><linearGradient id="e"><stop offset="0" stop-color="#e694bb"/><stop offset=".262" stop-color="#d3819a"/><stop offset=".705" stop-color="#b25a64"/><stop offset="1" stop-color="#98313d"/></linearGradient></defs><path style="line-height:normal;text-indent:0;text-align:start;text-decoration-line:none;text-transform:none;marker:none" d="M32.938-.012c-.999.32-1.335 1.84-.565 2.555l9.035 9.082c.835.796 2.497.115 2.541-1.041V1.502c0-.793-.717-1.514-1.506-1.514h-9.035a1.548 1.548 0 0 0-.47 0zm-26.5.026C5.062.276 3.974 1.612 4 3.012V45c0 1.57 1.43 3 3 3h34c1.57 0 3-1.43 3-3V18.818a3.038 3.038 0 0 0-.844-2.156L27.344.857a3.038 3.038 0 0 0-2.157-.843H7a2.938 2.938 0 0 0-.563 0zM7 3.02h18.672l.187.188 14.907 15 .234.234v26.555H7V3.021zm4.424 14.514a.6.6 0 0 0-.6.6v16.17A2.398 2.398 0 0 0 13.22 36.7h6.955L18.04 43.1a.597.597 0 0 0 .568.787c.251 0 .485-.158.569-.408l2.26-6.778H23.4v6.588c0 .331.269.598.6.598.331 0 .6-.267.6-.598v-6.588h1.962l2.26 6.778a.598.598 0 0 0 1.137-.38l-2.133-6.398h6.955a2.398 2.398 0 0 0 2.395-2.396v-16.17a.6.6 0 0 0-.6-.6H11.424zm1.795 2.397H34.78v14.373H13.22V19.932zm14.972 1.197a.598.598 0 0 0-.597.6v10.779c0 .33.266.6.597.6h3.594a.6.6 0 0 0 .6-.6v-10.78a.6.6 0 0 0-.6-.6h-3.594zm-5.988 2.396c-.33 0-.6.267-.6.598v8.385a.6.6 0 0 0 .6.6h3.594a.6.6 0 0 0 .6-.6v-8.385a.598.598 0 0 0-.6-.598h-3.594zm-5.988 3.592a.6.6 0 0 0-.6.6v4.79a.6.6 0 0 0 .6.6h3.594a.598.598 0 0 0 .597-.6v-4.79c0-.331-.266-.6-.597-.6h-3.594z" color="#000" font-weight="400" font-family="Andale Mono" overflow="visible" fill="#e6e6e6"/></svg>
